public/svg/docker.svg

<svg width="24" height="24" viewBox="0 0 24 24" fill="none" xmlns="http://www.w3.org/2000/svg">
<path fill-rule="evenodd" clip-rule="evenodd" d="M13.8373 9.5249H15.956V11.6812H17.0248C17.5123 11.6812 18.0185 11.5874 18.4873 11.4374C18.7123 11.3624 18.9748 11.2499 19.1998 11.1187C18.8998 10.7249 18.7498 10.2374 18.7123 9.7499C18.656 9.09365 18.7873 8.23115 19.2373 7.7249L19.4623 7.4624L19.7248 7.66865C20.3998 8.2124 20.9435 8.94365 21.056 9.80615C21.8623 9.5624 22.7998 9.61865 23.5123 10.0312L23.7935 10.1999L23.6435 10.4999C23.0435 11.6624 21.7873 12.0374 20.5685 11.9624C18.731 16.5187 14.756 18.6749 9.91854 18.6749C7.42479 18.6749 5.13729 17.7374 3.82479 15.5249L3.80604 15.4874L3.61854 15.0937C3.16854 14.1187 3.03729 13.0499 3.13104 11.9812L3.16854 11.6624H4.96854V9.5249H7.08729V7.4249H11.306V5.30615H13.8373V9.5249Z" fill="#3A4D54"/>
<path d="M20.6996 10.331C20.8496 9.22471 20.0246 8.36221 19.4996 7.94971C18.9184 8.62471 18.8246 10.4247 19.7434 11.1747C19.2184 11.6247 18.1496 12.056 17.0246 12.056H3.48713C3.37463 13.2185 3.58088 14.2872 4.04963 15.206L4.19963 15.4872C4.29338 15.656 4.40588 15.806 4.51838 15.9747C5.08088 16.0122 5.58713 16.031 6.05588 16.0122C6.97463 15.9935 7.72463 15.881 8.30588 15.6935C8.39963 15.656 8.47463 15.7122 8.51213 15.7872C8.54963 15.881 8.49338 15.956 8.41838 15.9935C8.34338 16.0122 8.26838 16.0497 8.17463 16.0685C7.72463 16.1997 7.23713 16.2747 6.61838 16.3122H6.50588C6.26213 16.331 5.99963 16.331 5.71838 16.331C5.41838 16.331 5.13713 16.331 4.79963 16.3122C5.92463 17.5872 7.68713 18.3372 9.89963 18.3372C14.5871 18.3372 18.5621 16.256 20.3059 11.606C21.5621 11.7372 22.7621 11.4185 23.3059 10.3497C22.4621 9.84346 21.3371 10.0122 20.6996 10.331Z" fill="#00AADA"/>
<path d="M20.6998 10.331C20.8498 9.22471 20.0248 8.36221 19.4998 7.94971C18.9186 8.62471 18.8248 10.4247 19.7436 11.1747C19.2186 11.6247 18.1498 12.056 17.0248 12.056H4.27483C4.21858 13.8372 4.87483 15.1872 6.05608 15.9935C6.97483 15.9747 7.72483 15.8622 8.30608 15.6747C8.39983 15.6372 8.47483 15.6935 8.51233 15.7685C8.54983 15.8622 8.49358 15.9372 8.41858 15.9747C8.34358 15.9935 8.26858 16.031 8.17483 16.0497C7.72483 16.181 7.19983 16.2747 6.58108 16.3122L6.56233 16.2935C8.15608 17.1185 10.4623 17.0997 13.1248 16.0872C16.0873 14.9435 18.8623 12.7685 20.7936 10.2935C20.7561 10.3122 20.7186 10.3122 20.6998 10.331Z" fill="#28B8EB"/>
<path d="M3.50586 13.4624C3.58086 14.0812 3.76836 14.6624 4.04961 15.2062L4.19961 15.4874C4.29336 15.6562 4.40586 15.8062 4.51836 15.9749C5.08086 16.0124 5.58711 16.0312 6.05586 16.0124C6.97461 15.9937 7.72461 15.8812 8.30586 15.6937C8.39961 15.6562 8.47461 15.7124 8.51211 15.7874C8.54961 15.8812 8.49336 15.9562 8.41836 15.9937C8.34336 16.0124 8.26836 16.0499 8.17461 16.0687C7.72461 16.1999 7.19961 16.2937 6.58086 16.3312H6.50586C6.26211 16.3499 5.99961 16.3499 5.73711 16.3499C5.43711 16.3499 5.13711 16.3499 4.81836 16.3312C5.94336 17.6062 7.72461 18.3562 9.93711 18.3562C13.9496 18.3562 17.4371 16.8374 19.4621 13.4812H3.50586V13.4624Z" fill="#028BB8"/>
<path d="M4.40625 13.4624C4.65 14.5499 5.2125 15.4124 6.05625 15.9937C6.975 15.9749 7.725 15.8624 8.30625 15.6749C8.4 15.6374 8.475 15.6937 8.5125 15.7687C8.55 15.8624 8.49375 15.9374 8.41875 15.9749C8.34375 15.9937 8.26875 16.0312 8.175 16.0499C7.725 16.1812 7.2 16.2749 6.5625 16.3124C8.15625 17.1374 10.4625 17.1187 13.1063 16.1062C14.7 15.4874 16.2562 14.5687 17.6437 13.4624H4.40625Z" fill="#019BC6"/>
<path fill-rule="evenodd" clip-rule="evenodd" d="M5.3252 9.88125H7.1627V11.7188H5.3252V9.88125ZM5.4752 10.0312H5.6252V11.55H5.4752V10.0312ZM5.7377 10.0312H5.8877V11.55H5.7377V10.0312ZM6.01895 10.0312H6.16895V11.55H6.01895V10.0312ZM6.3002 10.0312H6.4502V11.55H6.3002V10.0312ZM6.58145 10.0312H6.73145V11.55H6.58145V10.0312ZM6.8627 10.0312H7.0127V11.55H6.8627V10.0312ZM7.4252 7.78125H9.2627V9.61875H7.4252V7.78125ZM7.59395 7.93125H7.74395V9.45H7.59395V7.93125ZM7.85645 7.93125H8.00645V9.45H7.85645V7.93125ZM8.1377 7.93125H8.2877V9.45H8.1377V7.93125ZM8.41895 7.93125H8.56895V9.45H8.41895V7.93125ZM8.68145 7.93125H8.83145V9.45H8.68145V7.93125ZM8.9627 7.93125H9.1127V9.45H8.9627V7.93125Z" fill="#00ACD3"/>
<path fill-rule="evenodd" clip-rule="evenodd" d="M7.4248 9.88135H9.26231V11.7188H7.4248V9.88135ZM7.59356 10.0313H7.74356V11.5501H7.59356V10.0313ZM7.85606 10.0313H8.00606V11.5501H7.85606V10.0313ZM8.13731 10.0313H8.28731V11.5501H8.13731V10.0313ZM8.41856 10.0313H8.56856V11.5501H8.41856V10.0313ZM8.68106 10.0313H8.83106V11.5501H8.68106V10.0313ZM8.96231 10.0313H9.11231V11.5501H8.96231V10.0313Z" fill="#23C2EE"/>
<path fill-rule="evenodd" clip-rule="evenodd" d="M9.54395 9.88135H11.3814V11.7188H9.54395V9.88135ZM9.69395 10.0313H9.84394V11.5501H9.69395V10.0313ZM9.97519 10.0313H10.1252V11.5501H9.97519V10.0313ZM10.2564 10.0313H10.4064V11.5501H10.2564V10.0313ZM10.5189 10.0313H10.6689V11.5501H10.5189V10.0313ZM10.8002 10.0313H10.9502V11.5501H10.8002V10.0313ZM11.0814 10.0313H11.2314V11.5501H11.0814V10.0313Z" fill="#00ACD3"/>
<path fill-rule="evenodd" clip-rule="evenodd" d="M9.54395 7.78125H11.3814V9.61875H9.54395V7.78125ZM9.69395 7.93125H9.84394V9.45H9.69395V7.93125ZM9.9752 7.93125H10.1252V9.45H9.9752V7.93125ZM10.2564 7.93125H10.4064V9.45H10.2564V7.93125ZM10.5189 7.93125H10.6689V9.45H10.5189V7.93125ZM10.8002 7.93125H10.9502V9.45H10.8002V7.93125ZM11.0814 7.93125H11.2314V9.45H11.0814V7.93125ZM11.6627 9.88125H13.5002V11.7188H11.6627V9.88125ZM11.8127 10.0312H11.9627V11.55H11.8127V10.0312ZM12.0939 10.0312H12.2439V11.55H12.0939V10.0312ZM12.3564 10.0312H12.5064V11.55H12.3564V10.0312ZM12.6377 10.0312H12.7877V11.55H12.6377V10.0312ZM12.9189 10.0312H13.0689V11.55H12.9189V10.0312ZM13.2002 10.0312H13.3502V11.55H13.2002V10.0312Z" fill="#23C2EE"/>
<path fill-rule="evenodd" clip-rule="evenodd" d="M11.6621 7.78125H13.4996V9.61875H11.6621V7.78125ZM11.8121 7.93125H11.9621V9.45H11.8121V7.93125ZM12.0934 7.93125H12.2434V9.45H12.0934V7.93125ZM12.3559 7.93125H12.5059V9.45H12.3559V7.93125ZM12.6371 7.93125H12.7871V9.45H12.6371V7.93125ZM12.9184 7.93125H13.0684V9.45H12.9184V7.93125ZM13.1996 7.93125H13.3496V9.45H13.1996V7.93125Z" fill="#00ACD3"/>
<path fill-rule="evenodd" clip-rule="evenodd" d="M11.6621 5.6626H13.4996V7.5001H11.6621V5.6626ZM11.8121 5.8126H11.9621V7.33135H11.8121V5.8126ZM12.0934 5.8126H12.2434V7.33135H12.0934V5.8126ZM12.3559 5.8126H12.5059V7.33135H12.3559V5.8126ZM12.6371 5.8126H12.7871V7.33135H12.6371V5.8126ZM12.9184 5.8126H13.0684V7.33135H12.9184V5.8126ZM13.1996 5.8126H13.3496V7.33135H13.1996V5.8126Z" fill="#23C2EE"/>
<path fill-rule="evenodd" clip-rule="evenodd" d="M13.7812 9.88135H15.6188V11.7188H13.7812V9.88135ZM13.9313 10.0313H14.0812V11.5501H13.9313V10.0313ZM14.1937 10.0313H14.3438V11.5501H14.1937V10.0313ZM14.475 10.0313H14.625V11.5501H14.475V10.0313ZM14.7562 10.0313H14.9062V11.5501H14.7562V10.0313ZM15.0375 10.0313H15.1875V11.5501H15.0375V10.0313ZM15.3187 10.0313H15.4688V11.5501H15.3187V10.0313Z" fill="#00ACD3"/>
<path fill-rule="evenodd" clip-rule="evenodd" d="M9.14981 14.6812C9.43106 14.6812 9.65606 14.9062 9.65606 15.1874C9.65606 15.4687 9.43106 15.6937 9.14981 15.6937C8.86856 15.6937 8.64355 15.4687 8.64355 15.1874C8.64355 14.9062 8.86856 14.6812 9.14981 14.6812Z" fill="#D4EEF1"/>
<path fill-rule="evenodd" clip-rule="evenodd" d="M9.14981 14.8311C9.1873 14.8311 9.24356 14.8311 9.28106 14.8498C9.24356 14.8686 9.20605 14.9248 9.20605 14.9811C9.20605 15.0561 9.28106 15.1311 9.35606 15.1311C9.4123 15.1311 9.46855 15.0936 9.4873 15.0561C9.50605 15.0936 9.50605 15.1498 9.50605 15.1873C9.50605 15.3936 9.33731 15.5436 9.14981 15.5436C8.94355 15.5436 8.79356 15.3748 8.79356 15.1873C8.79356 14.9998 8.94355 14.8311 9.14981 14.8311ZM0.206055 13.6498H23.7186C23.2123 13.5186 22.1061 13.3498 22.2748 12.6748C21.3373 13.7436 19.1061 13.4248 18.5248 12.8998C17.8873 13.8186 14.2123 13.4623 13.9686 12.7498C13.1811 13.6873 10.7248 13.6873 9.93731 12.7498C9.6748 13.4623 5.9998 13.8186 5.38105 12.8998C4.81855 13.4248 2.56855 13.7436 1.63105 12.6748C1.8373 13.3311 0.712305 13.5186 0.206055 13.6498Z" fill="#3A4D54"/>
<path d="M10.5002 18.3373C9.24394 17.7373 8.56894 16.9311 8.17519 16.0498C7.70644 16.1811 7.14394 16.2748 6.50645 16.3123C6.2627 16.3311 6.0002 16.3311 5.7377 16.3311C5.41895 16.3311 5.1002 16.3311 4.7627 16.3123C5.8877 17.4373 7.3127 18.3186 9.91894 18.3373H10.5002Z" fill="#BFDBE0"/>
<path d="M8.64336 16.8561C8.47461 16.6123 8.30586 16.3311 8.17461 16.0498C7.70586 16.1811 7.14336 16.2748 6.50586 16.3123C6.93711 16.5373 7.57461 16.7623 8.64336 16.8561Z" fill="#D4EEF1"/>
</svg>

<svg xmlns="http://www.w3.org/2000/svg" width="24" height="24" fill="none" xmlns:v="https://vecta.io/nano"><path fill-rule="evenodd" d="M13.837 9.525h2.119v2.156h1.069a4.88 4.88 0 0 0 1.463-.244c.225-.075.487-.187.712-.319-.3-.394-.45-.881-.488-1.369-.056-.656.075-1.519.525-2.025l.225-.263.262.206c.675.544 1.219 1.275 1.331 2.138.806-.244 1.744-.187 2.456.225l.281.169-.15.3c-.6 1.162-1.856 1.537-3.075 1.463-1.837 4.556-5.812 6.713-10.65 6.713-2.494 0-4.781-.937-6.094-3.15l-.019-.038-.187-.394c-.45-.975-.581-2.044-.487-3.113l.038-.319h1.8V9.525h2.119v-2.1h4.219V5.306h2.531v4.219z" fill="#3a4d54"/><path d="M20.7 10.331c.15-1.106-.675-1.969-1.2-2.381-.581.675-.675 2.475.244 3.225-.525.45-1.594.881-2.719.881H3.487c-.113 1.163.094 2.231.562 3.15l.15.281c.094.169.206.319.319.488l1.538.037c.919-.019 1.669-.131 2.25-.319.094-.037.169.019.206.094.037.094-.019.169-.094.206-.075.019-.15.056-.244.075-.45.131-.938.206-1.556.244h-.112c-.244.019-.506.019-.788.019-.3 0-.581 0-.919-.019 1.125 1.275 2.888 2.025 5.1 2.025 4.687 0 8.662-2.081 10.406-6.731 1.256.131 2.456-.187 3-1.256-.844-.506-1.969-.338-2.606-.019z" fill="#00aada"/><path d="M20.7 10.331c.15-1.106-.675-1.969-1.2-2.381-.581.675-.675 2.475.244 3.225-.525.45-1.594.881-2.719.881H4.275c-.056 1.781.6 3.131 1.781 3.938.919-.019 1.669-.131 2.25-.319.094-.037.169.019.206.094.037.094-.019.169-.094.206-.075.019-.15.056-.244.075-.45.131-.975.225-1.594.262l-.019-.019c1.594.825 3.9.806 6.562-.206 2.962-1.144 5.738-3.319 7.669-5.794-.038.019-.075.019-.094.037z" fill="#28b8eb"/><path d="M3.506 13.462c.075.619.262 1.2.544 1.744l.15.281c.094.169.206.319.319.488l1.537.037c.919-.019 1.669-.131 2.25-.319.094-.037.169.019.206.094.037.094-.019.169-.094.206-.075.019-.15.056-.244.075-.45.131-.975.225-1.594.262h-.075c-.244.019-.506.019-.769.019-.3 0-.6 0-.919-.019 1.125 1.275 2.906 2.025 5.119 2.025 4.012 0 7.5-1.519 9.525-4.875H3.506v-.019z" fill="#028bb8"/><path d="M4.406 13.462c.244 1.087.806 1.95 1.65 2.531.919-.019 1.669-.131 2.25-.319.094-.037.169.019.206.094.038.094-.019.169-.094.206-.075.019-.15.056-.244.075a7.23 7.23 0 0 1-1.613.262c1.594.825 3.9.806 6.544-.206 1.594-.619 3.15-1.538 4.537-2.644H4.406z" fill="#019bc6"/><g fill-rule="evenodd"><path d="M5.325 9.881h1.838v1.838H5.325V9.881zm.15.15h.15v1.519h-.15v-1.519zm.263 0h.15v1.519h-.15v-1.519zm.281 0h.15v1.519h-.15v-1.519zm.281 0h.15v1.519H6.3v-1.519zm.281 0h.15v1.519h-.15v-1.519zm.281 0h.15v1.519h-.15v-1.519zm.563-2.25h1.838v1.838H7.425V7.781zm.169.15h.15V9.45h-.15V7.931zm.262 0h.15V9.45h-.15V7.931zm.281 0h.15V9.45h-.15V7.931zm.281 0h.15V9.45h-.15V7.931zm.262 0h.15V9.45h-.15V7.931zm.281 0h.15V9.45h-.15V7.931z" fill="#00acd3"/><path d="M7.425 9.881h1.838v1.837H7.425V9.881zm.169.15h.15v1.519h-.15v-1.519zm.263 0h.15v1.519h-.15v-1.519zm.281 0h.15v1.519h-.15v-1.519zm.281 0h.15v1.519h-.15v-1.519zm.263 0h.15v1.519h-.15v-1.519zm.281 0h.15v1.519h-.15v-1.519z" fill="#23c2ee"/><path d="M9.544 9.881h1.837v1.837H9.544V9.881zm.15.15h.15v1.519h-.15v-1.519zm.281 0h.15v1.519h-.15v-1.519zm.281 0h.15v1.519h-.15v-1.519zm.263 0h.15v1.519h-.15v-1.519zm.281 0h.15v1.519h-.15v-1.519zm.281 0h.15v1.519h-.15v-1.519z" fill="#00acd3"/><path d="M9.544 7.781h1.837v1.838H9.544V7.781zm.15.15h.15V9.45h-.15V7.931zm.281 0h.15V9.45h-.15V7.931zm.281 0h.15V9.45h-.15V7.931zm.263 0h.15V9.45h-.15V7.931zm.281 0h.15V9.45h-.15V7.931zm.281 0h.15V9.45h-.15V7.931zm.581 1.95H13.5v1.838h-1.838V9.881zm.15.15h.15v1.519h-.15v-1.519zm.281 0h.15v1.519h-.15v-1.519zm.263 0h.15v1.519h-.15v-1.519zm.281 0h.15v1.519h-.15v-1.519zm.281 0h.15v1.519h-.15v-1.519zm.281 0h.15v1.519h-.15v-1.519z" fill="#23c2ee"/><path d="M11.662 7.781H13.5v1.838h-1.837V7.781zm.15.15h.15V9.45h-.15V7.931zm.281 0h.15V9.45h-.15V7.931zm.262 0h.15V9.45h-.15V7.931zm.281 0h.15V9.45h-.15V7.931zm.281 0h.15V9.45h-.15V7.931zm.281 0h.15V9.45h-.15V7.931z" fill="#00acd3"/><path d="M11.662 5.663H13.5V7.5h-1.837V5.663zm.15.15h.15v1.519h-.15V5.813zm.281 0h.15v1.519h-.15V5.813zm.262 0h.15v1.519h-.15V5.813zm.281 0h.15v1.519h-.15V5.813zm.281 0h.15v1.519h-.15V5.813zm.281 0h.15v1.519h-.15V5.813z" fill="#23c2ee"/><path d="M13.781 9.881h1.838v1.837h-1.838V9.881zm.15.15h.15v1.519h-.15v-1.519zm.262 0h.15v1.519h-.15v-1.519zm.281 0h.15v1.519h-.15v-1.519zm.281 0h.15v1.519h-.15v-1.519zm.281 0h.15v1.519h-.15v-1.519zm.281 0h.15v1.519h-.15v-1.519z" fill="#00acd3"/><path d="M9.15 14.681c.281 0 .506.225.506.506s-.225.506-.506.506-.506-.225-.506-.506.225-.506.506-.506z" fill="#d4eef1"/><path d="M9.15 14.831c.037 0 .094 0 .131.019-.037.019-.075.075-.075.131 0 .075.075.15.15.15.056 0 .112-.037.131-.075.019.037.019.094.019.131 0 .206-.169.356-.356.356-.206 0-.356-.169-.356-.356s.15-.356.356-.356zM.206 13.65h23.513c-.506-.131-1.612-.3-1.444-.975-.937 1.069-3.169.75-3.75.225-.637.919-4.312.563-4.556-.15-.787.938-3.244.938-4.031 0-.263.713-3.938 1.069-4.556.15-.562.525-2.812.844-3.75-.225.206.656-.919.844-1.425.975z" fill="#3a4d54"/></g><path d="M10.5 18.337c-1.256-.6-1.931-1.406-2.325-2.287-.469.131-1.031.225-1.669.262-.244.019-.506.019-.769.019-.319 0-.638 0-.975-.019 1.125 1.125 2.55 2.006 5.156 2.025h.581z" fill="#bfdbe0"/><path d="M8.643 16.856c-.169-.244-.338-.525-.469-.806-.469.131-1.031.225-1.669.262.431.225 1.069.45 2.137.544z" fill="#d4eef1"/></svg>
